src/components/atoms/Icon/svgs/linkedin.svg

<svg width="24" height="24" viewBox="0 0 24 24" fill="none" xmlns="http://www.w3.org/2000/svg">
    <path
        d="M16 8C17.5913 8 19.1174 8.63214 20.2426 9.75736C21.3679 10.8826 22 12.4087 22 14V21H18V14C18 13.4696 17.7893 12.9609 17.4142 12.5858C17.0391 12.2107 16.5304 12 16 12C15.4696 12 14.9609 12.2107 14.5858 12.5858C14.2107 12.9609 14 13.4696 14 14V21H10V14C10 12.4087 10.6321 10.8826 11.7574 9.75736C12.8826 8.63214 14.4087 8 16 8V8Z"
        stroke="currentColor" stroke-width="2" stroke-linecap="round" stroke-linejoin="round" />
    <path d="M6 9H2V21H6V9Z" stroke="currentColor" stroke-width="2" stroke-linecap="round" stroke-linejoin="round" />
    <path d="M4 6C5.10457 6 6 5.10457 6 4C6 2.89543 5.10457 2 4 2C2.89543 2 2 2.89543 2 4C2 5.10457 2.89543 6 4 6Z"
        stroke="currentColor" stroke-width="2" stroke-linecap="round" stroke-linejoin="round" />
</svg>

<svg viewBox="0 0 24 24" fill="none" xmlns="http://www.w3.org/2000/svg">
    <path d="M16 8a6 6 0 016 6v7h-4v-7a2 2 0 00-4 0v7h-4v-7a6 6 0 016-6v0z" stroke="currentColor" stroke-width="2" stroke-linecap="round" stroke-linejoin="round"/>
    <path d="M6 9H2v12h4V9z" stroke="currentColor" stroke-width="2" stroke-linecap="round" stroke-linejoin="round"/>
    <path d="M4 6a2 2 0 100-4 2 2 0 000 4z" stroke="currentColor" stroke-width="2" stroke-linecap="round" stroke-linejoin="round"/>
</svg>
